actions/32/acrobat.svg

<svg xmlns="http://www.w3.org/2000/svg" viewBox="0 0 32 32">
 <g fill="#d24d57" transform="translate(-384.57-515.8)">
  <path d="m400.57 519.8v1h9v15h-7v7h-11v-8h-1v9h13l7-7v-17z"/>
  <path d="m390.57 519.8v14l4.5-3 4.5 3v-14zm7 4c-.92 2.361-2.809 3.443-5 5 .833-4.494 1.4-5 5-5"/>
 </g>
</svg>

<svg xmlns="http://www.w3.org/2000/svg" version="1.1" viewBox="0 0 32 32">
 <g style="fill:#d24d57" transform="translate(-384.57,-515.8)">
  <path d="M 400.57,519.8 V 520.8 H 409.57 V 535.8 H 402.57 V 542.8 H 391.57 V 534.8 H 390.57 V 543.8 H 403.57 L 410.57,536.8 V 519.8 Z"/>
  <path d="M 390.57,519.8 V 533.8 L 395.07,530.8 399.57,533.8 V 519.8 Z M 397.57,523.8 C 396.65,526.16 394.76,527.24 392.57,528.8 393.4,524.31 393.97,523.8 397.57,523.8"/>
 </g>
</svg>
